src/app/assets/images/migration-notification-header-dark.svg

<svg width="218" height="96" viewBox="0 0 218 96" fill="none" xmlns="http://www.w3.org/2000/svg">
	<path
		d="M104.397 6.68575C107.11 5.11928 110.453 5.11928 113.166 6.68576L142.369 23.5459C145.082 25.1124 146.754 28.0073 146.754 31.1403V64.8606C146.754 67.9936 145.082 70.8885 142.369 72.455L113.166 89.3151C110.453 90.8816 107.11 90.8816 104.397 89.3151L75.1944 72.455C72.4812 70.8885 70.8098 67.9935 70.8098 64.8606V31.1403C70.8098 28.0073 72.4812 25.1124 75.1944 23.5459L104.397 6.68575Z"
		fill="#212052" stroke="#9C9AFF" stroke-width="1.02849" />
	<path fill-rule="evenodd" clip-rule="evenodd"
		d="M108.835 38.6937L83.9346 64.8972L108.835 24.6152L133.554 64.8972L108.835 38.6937ZM97.6158 56.4873L101.595 52.2824H116.006L119.985 56.4873H97.6158ZM104.429 49.3559L108.831 44.8463L113.172 49.3559H104.429Z"
		fill="#363383" />
	<path
		d="M108.835 38.6937L109.367 38.1922C109.229 38.0462 109.037 37.9633 108.836 37.9629C108.636 37.9626 108.444 38.0448 108.305 38.1903L108.835 38.6937ZM83.9346 64.8972L83.313 64.513C83.1161 64.8315 83.1918 65.2473 83.4884 65.476C83.7849 65.7046 84.2064 65.6721 84.4643 65.4006L83.9346 64.8972ZM108.835 24.6152L109.458 24.233C109.325 24.0168 109.09 23.8849 108.836 23.8845C108.583 23.8841 108.347 24.0152 108.213 24.231L108.835 24.6152ZM133.554 64.8972L133.023 65.3987C133.28 65.6711 133.701 65.7051 133.998 65.4775C134.296 65.2498 134.373 64.8342 134.177 64.515L133.554 64.8972ZM97.6158 56.4873L97.085 55.985C96.8844 56.197 96.8292 56.5081 96.9446 56.7762C97.06 57.0443 97.3239 57.218 97.6158 57.218V56.4873ZM101.595 52.2824V51.5516C101.394 51.5516 101.202 51.6343 101.064 51.7801L101.595 52.2824ZM116.006 52.2824L116.536 51.7801C116.398 51.6343 116.206 51.5516 116.006 51.5516V52.2824ZM119.985 56.4873V57.218C120.277 57.218 120.541 57.0443 120.656 56.7762C120.772 56.5081 120.716 56.197 120.516 55.985L119.985 56.4873ZM104.429 49.3559L103.906 48.8455C103.701 49.0558 103.641 49.3687 103.755 49.6396C103.87 49.9105 104.135 50.0867 104.429 50.0867V49.3559ZM108.831 44.8463L109.357 44.3395C109.22 44.197 109.031 44.1162 108.833 44.1155C108.636 44.1148 108.446 44.1943 108.308 44.3358L108.831 44.8463ZM113.172 49.3559V50.0867C113.465 50.0867 113.729 49.9116 113.844 49.642C113.959 49.3723 113.901 49.0602 113.698 48.8491L113.172 49.3559ZM108.305 38.1903L83.4048 64.3938L84.4643 65.4006L109.365 39.1971L108.305 38.1903ZM84.5562 65.2815L109.457 24.9995L108.213 24.231L83.313 64.513L84.5562 65.2815ZM108.212 24.9974L132.931 65.2794L134.177 64.515L109.458 24.233L108.212 24.9974ZM134.086 64.3958L109.367 38.1922L108.303 39.1952L133.023 65.3987L134.086 64.3958ZM98.1466 56.9896L102.126 52.7847L101.064 51.7801L97.085 55.985L98.1466 56.9896ZM101.595 53.0132H116.006V51.5516H101.595V53.0132ZM115.475 52.7847L119.454 56.9896L120.516 55.985L116.536 51.7801L115.475 52.7847ZM119.985 55.7565H97.6158V57.218H119.985V55.7565ZM104.952 49.8664L109.354 45.3567L108.308 44.3358L103.906 48.8455L104.952 49.8664ZM108.304 45.353L112.645 49.8627L113.698 48.8491L109.357 44.3395L108.304 45.353ZM113.172 48.6251H104.429V50.0867H113.172V48.6251Z"
		fill="#9C9AFF" />
	<path
		d="M103.666 3.45337C106.831 1.62582 110.731 1.62582 113.897 3.45337L144.802 21.2966C147.967 23.1242 149.917 26.5016 149.917 30.1567V65.8433C149.917 69.4984 147.967 72.8758 144.802 74.7034L113.897 92.5466C110.731 94.3742 106.831 94.3742 103.666 92.5466L72.7604 74.7034C69.595 72.8758 67.645 69.4984 67.645 65.8433V30.1567C67.645 26.5016 69.595 23.1242 72.7604 21.2966L103.666 3.45337Z"
		stroke="#4745B0" stroke-width="1.02849" />
	<path
		d="M105.858 9.49526C107.667 8.45094 109.895 8.45094 111.704 9.49526L140.666 26.2161C142.474 27.2604 143.589 29.1904 143.589 31.279V64.7208C143.589 66.8094 142.474 68.7394 140.666 69.7837L111.704 86.5046C109.895 87.5489 107.667 87.5489 105.858 86.5046L76.8967 69.7837C75.0879 68.7394 73.9736 66.8094 73.9736 64.7208V31.2791C73.9736 29.1904 75.0879 27.2604 76.8967 26.2161L105.858 9.49526Z"
		stroke="#4745B0" stroke-width="1.02849" />
	<path
		d="M156.641 81.5001C156.802 76.7991 160.36 67.0904 173.312 65.8641M163.534 61.1119C165.19 58.3526 166.964 51.6996 160.809 47.1621"
		stroke="#5452CE" stroke-width="1.46154" stroke-linecap="round" />
	<path
		d="M208.411 5.61523C222.684 17.5722 217.388 33.5285 198.952 24.9304C180.517 16.3323 194.468 6.84159 208.733 24.7771M211.298 29.3759C213.382 35.3544 207.772 45.3186 192.063 39.4934C176.355 33.6682 187.415 18.3387 203.284 39.0335M205.207 43.1724C208.411 50.3773 204.726 59.1151 187.415 54.363C170.104 49.6108 180.522 31.2155 196.712 52.9833M199.437 57.4289C201.093 62.4876 200.27 71.9305 183.728 69.2326"
		stroke="#5452CE" stroke-width="1.46154" stroke-linecap="round" />
	<ellipse rx="2.24405" ry="2.14613" transform="matrix(-1 0 0 1 187.257 79.2008)" stroke="#6E6CEF"
		stroke-width="1.46154" />
	<ellipse rx="2.24405" ry="2.14613" transform="matrix(-1 0 0 1 171.97 49.9703)" stroke="#6E6CEF"
		stroke-width="1.46154" />
	<ellipse rx="1.91028" ry="1.82692" transform="matrix(-1 0 0 1 182.233 88.5574)" stroke="#6E6CEF"
		stroke-width="1.46154" />
	<ellipse rx="1.91028" ry="1.82692" transform="matrix(-1 0 0 1 209.747 62.9802)" stroke="#DE5846"
		stroke-width="1.46154" />
	<ellipse rx="3.05645" ry="2.92308" transform="matrix(-1 0 0 1 168.862 81.6155)" stroke="#DE5846"
		stroke-width="1.46154" />
	<path
		d="M60.9177 81.5001C60.7574 76.7991 57.1986 67.0904 44.2461 65.8641M54.0246 61.1119C52.3681 58.3526 50.5941 51.6996 56.7498 47.1621"
		stroke="#DE5846" stroke-width="1.46154" stroke-linecap="round" />
	<path
		d="M9.15187 5.61523C-5.12167 17.5722 0.174029 33.5285 18.6116 24.9304C37.0492 16.3323 23.0969 6.84159 8.82983 24.7771M6.26497 29.3759C4.18103 35.3544 9.79165 45.3186 25.5014 39.4934C41.2112 33.6682 30.1502 18.3387 14.2802 39.0335M12.3565 43.1724C9.15187 50.3773 12.8374 59.1151 30.1502 54.363C47.463 49.6108 37.0433 31.2155 20.8526 52.9833M18.1274 57.4289C16.471 62.4876 17.2939 71.9305 33.8372 69.2326"
		stroke="#DE5846" stroke-width="1.46154" stroke-linecap="round" />
	<ellipse cx="30.3146" cy="79.2008" rx="2.24425" ry="2.14613" stroke="#B01E20" stroke-width="1.46154" />
	<ellipse cx="45.6026" cy="49.9703" rx="2.24425" ry="2.14613" stroke="#B01E20" stroke-width="1.46154" />
	<ellipse cx="35.3333" cy="88.5574" rx="1.91045" ry="1.82692" stroke="#B01E20" stroke-width="1.46154" />
	<ellipse cx="7.81963" cy="62.9802" rx="1.91045" ry="1.82692" stroke="#5452CE" stroke-width="1.46154" />
	<ellipse cx="48.7061" cy="81.6155" rx="3.05672" ry="2.92308" stroke="#5452CE" stroke-width="1.46154" />
</svg>

<svg width="218" height="96" viewBox="0 0 218 96" fill="none" xmlns="http://www.w3.org/2000/svg"><path d="M104.397 6.686a8.769 8.769 0 0 1 8.769 0l29.203 16.86a8.77 8.77 0 0 1 4.385 7.594v33.72a8.77 8.77 0 0 1-4.385 7.595l-29.203 16.86a8.769 8.769 0 0 1-8.769 0l-29.203-16.86a8.77 8.77 0 0 1-4.384-7.594V31.14a8.77 8.77 0 0 1 4.384-7.595l29.203-16.86z" fill="#212052" stroke="#9C9AFF" stroke-width="1.028"/><path fill-rule="evenodd" clip-rule="evenodd" d="M108.835 38.694l-24.9 26.203 24.9-40.282 24.719 40.282-24.719-26.203zm-11.22 17.793l3.98-4.205h14.411l3.979 4.205h-22.37zm6.814-7.131l4.402-4.51 4.341 4.51h-8.743z" fill="#363383"/><path d="M108.835 38.694l.532-.502a.733.733 0 0 0-1.062-.002l.53.504zm-24.9 26.203l-.622-.384a.73.73 0 0 0 1.151.888l-.53-.504zm24.9-40.282l.623-.382a.731.731 0 0 0-1.245-.002l.622.384zm24.719 40.282l-.531.502a.73.73 0 0 0 1.154-.884l-.623.382zm-35.938-8.41l-.531-.502a.73.73 0 0 0 .53 1.233v-.73zm3.979-4.205v-.73a.731.731 0 0 0-.531.228l.531.502zm14.411 0l.53-.502a.73.73 0 0 0-.53-.228v.73zm3.979 4.205v.731a.73.73 0 0 0 .531-1.233l-.531.502zm-15.556-7.131l-.523-.51a.732.732 0 0 0 .523 1.24v-.73zm4.402-4.51l.526-.506a.73.73 0 0 0-1.049-.004l.523.51zm4.341 4.51v.73a.73.73 0 0 0 .526-1.237l-.526.507zm-4.867-11.166l-24.9 26.204 1.06 1.007 24.9-26.204-1.06-1.007zM84.556 65.281L109.457 25l-1.244-.768-24.9 40.282 1.243.768zm23.656-40.284l24.719 40.282 1.246-.764-24.719-40.282-1.246.764zm25.874 39.399l-24.719-26.204-1.064 1.003 24.72 26.204 1.063-1.003zm-35.94-7.406l3.98-4.205-1.062-1.005-3.979 4.205 1.062 1.005zm3.449-3.977h14.411v-1.461h-14.411v1.461zm13.88-.228l3.979 4.205 1.062-1.005-3.98-4.205-1.061 1.005zm4.51 2.972h-22.37v1.461h22.37v-1.462zm-15.033-5.89l4.402-4.51-1.046-1.021-4.402 4.51 1.046 1.02zm3.352-4.514l4.341 4.51 1.053-1.014-4.341-4.51-1.053 1.014zm4.868 3.272h-8.743v1.462h8.743v-1.462z" fill="#9C9AFF"/><path d="M103.666 3.453a10.231 10.231 0 0 1 10.231 0l30.905 17.844a10.231 10.231 0 0 1 5.115 8.86v35.686c0 3.655-1.95 7.033-5.115 8.86l-30.905 17.844a10.231 10.231 0 0 1-10.231 0L72.76 74.703a10.23 10.23 0 0 1-5.115-8.86V30.157a10.23 10.23 0 0 1 5.115-8.86l30.906-17.844z" stroke="#4745B0" stroke-width="1.028"/><path d="M105.858 9.495a5.846 5.846 0 0 1 5.846 0l28.962 16.721a5.848 5.848 0 0 1 2.923 5.063v33.442a5.848 5.848 0 0 1-2.923 5.063l-28.962 16.72a5.846 5.846 0 0 1-5.846 0l-28.961-16.72a5.846 5.846 0 0 1-2.923-5.063V31.279a5.846 5.846 0 0 1 2.923-5.063l28.961-16.72z" stroke="#4745B0" stroke-width="1.028"/><path d="M156.641 81.5c.161-4.7 3.719-14.41 16.671-15.636m-9.778-4.752c1.656-2.76 3.43-9.412-2.725-13.95M208.411 5.615c14.273 11.957 8.977 27.913-9.459 19.315-18.435-8.598-4.484-18.088 9.781-.153m2.565 4.599c2.084 5.978-3.526 15.943-19.235 10.117-15.708-5.825-4.648-21.154 11.221-.46m1.923 4.14c3.204 7.204-.481 15.942-17.792 11.19-17.311-4.752-6.893-23.148 9.297-1.38m2.725 4.446c1.656 5.059.833 14.501-15.709 11.804" stroke="#5452CE" stroke-width="1.462" stroke-linecap="round"/><ellipse rx="2.244" ry="2.146" transform="matrix(-1 0 0 1 187.257 79.2)" stroke="#6E6CEF" stroke-width="1.462"/><ellipse rx="2.244" ry="2.146" transform="matrix(-1 0 0 1 171.97 49.97)" stroke="#6E6CEF" stroke-width="1.462"/><ellipse rx="1.91" ry="1.827" transform="matrix(-1 0 0 1 182.233 88.557)" stroke="#6E6CEF" stroke-width="1.462"/><ellipse rx="1.91" ry="1.827" transform="matrix(-1 0 0 1 209.747 62.98)" stroke="#DE5846" stroke-width="1.462"/><ellipse rx="3.056" ry="2.923" transform="matrix(-1 0 0 1 168.862 81.615)" stroke="#DE5846" stroke-width="1.462"/><path d="M60.918 81.5c-.16-4.7-3.72-14.41-16.672-15.636m9.779-4.752c-1.657-2.76-3.43-9.412 2.725-13.95M9.152 5.615C-5.122 17.572.174 33.528 18.612 24.93c18.437-8.598 4.485-18.088-9.782-.153m-2.565 4.599c-2.084 5.978 3.527 15.943 19.236 10.117 15.71-5.825 4.65-21.154-11.22-.46m-1.925 4.14c-3.204 7.204.481 15.942 17.794 11.19 17.313-4.752 6.893-23.148-9.297-1.38m-2.726 4.446c-1.656 5.059-.833 14.501 15.71 11.804" stroke="#DE5846" stroke-width="1.462" stroke-linecap="round"/><ellipse cx="30.315" cy="79.201" rx="2.244" ry="2.146" stroke="#B01E20" stroke-width="1.462"/><ellipse cx="45.603" cy="49.97" rx="2.244" ry="2.146" stroke="#B01E20" stroke-width="1.462"/><ellipse cx="35.333" cy="88.557" rx="1.91" ry="1.827" stroke="#B01E20" stroke-width="1.462"/><ellipse cx="7.82" cy="62.98" rx="1.91" ry="1.827" stroke="#5452CE" stroke-width="1.462"/><ellipse cx="48.706" cy="81.615" rx="3.057" ry="2.923" stroke="#5452CE" stroke-width="1.462"/></svg>
